X:2019
M:2/4
L:1/16
K:C
A2 |: Ac d4 de | fg f4 df | ag e4 cc | dBBA A4 | Ac d4 de | fg f4 df | ag e4 cc | d2B2 A4 :|
|: fg a2 A4 | gf f2 ee | AA d2 fa | ge d2 Ad | fg a2 A4 | gf f2 ee | AA d2 fa | g2e2 d4 :|
(:musicend:)

(:music:)
